X:3
T:Shop Theme
M:3/4
L:1/8
Q:1/4=120
K:C
|: z6 | c2 cc AA G2 | z c GG AA cc | B2 BB AA G2 |
z G AA _B_B | B2 BB AA G2 | z B GG A B c2 | c c2 ccc z :|

